static/logos/amazon-glyph-color.svg

<svg width="50" height="50" viewBox="0 0 50 50" fill="none" xmlns="http://www.w3.org/2000/svg">
<g clip-path="url(#clip0_1_3573)">
<path d="M43.0432 40.3675C22.8032 50 10.2421 41.9408 2.20136 37.0458C1.7038 36.7373 0.858123 37.1179 1.59186 37.9607C4.27065 41.2088 13.0496 49.0376 24.5086 49.0376C35.9756 49.0376 42.7974 42.7807 43.6507 41.6892C44.4983 40.607 43.8996 40.01 43.043 40.3675H43.0432ZM48.7275 37.2283C48.184 36.5205 45.4225 36.3886 43.6846 36.6021C41.944 36.8094 39.3314 37.8732 39.5585 38.5119C39.6751 38.7512 39.913 38.6438 41.1087 38.5363C42.3077 38.4167 45.6665 37.9928 46.3664 38.9077C47.0696 39.829 45.2951 44.2176 44.9711 44.9254C44.658 45.6331 45.0907 45.8157 45.6788 45.3443C46.2589 44.8731 47.309 43.6527 48.0137 41.9258C48.7136 40.1894 49.1404 37.7672 48.7273 37.2283H48.7275Z" fill="#FF9900"/>
<path fill-rule="evenodd" clip-rule="evenodd" d="M29.4361 20.7125C29.4361 23.2399 29.4999 25.3476 28.2224 27.5921C27.1914 29.4172 25.5581 30.5394 23.7333 30.5394C21.2422 30.5394 19.7914 28.6415 19.7914 25.8404C19.7914 20.3109 24.7459 19.3073 29.4361 19.3073V20.7125ZM35.9782 36.5251C35.5493 36.9082 34.9288 36.9357 34.4453 36.6801C32.292 34.8919 31.9087 34.0616 30.7226 32.3552C27.164 35.9868 24.6457 37.0725 20.0288 37.0725C14.5724 37.0725 10.3203 33.7056 10.3203 26.9626C10.3203 21.698 13.1764 18.112 17.2365 16.3602C20.7587 14.8089 25.6768 14.5352 29.4361 14.1065V13.267C29.4361 11.7249 29.5545 9.90003 28.6513 8.56794C27.8574 7.37261 26.3428 6.87986 25.0105 6.87986C22.5379 6.87986 20.3298 8.14809 19.7914 10.7759C19.6818 11.36 19.2531 11.9349 18.6692 11.9622L12.3732 11.2871C11.8441 11.1683 11.2602 10.7396 11.4062 9.92734C12.857 2.29951 19.7457 0 25.9137 0C29.0708 0 33.195 0.839523 35.686 3.23019C38.8431 6.17728 38.5419 10.1099 38.5419 14.3892V24.4991C38.5419 27.5375 39.8011 28.8696 40.9872 30.5121C41.4069 31.096 41.4983 31.7988 40.969 32.2365C39.6459 33.3405 37.2918 35.3936 35.9963 36.5434L35.978 36.5251" fill="black"/>
<path d="M43.0432 40.3675C22.8032 50 10.2421 41.9408 2.20136 37.0458C1.7038 36.7373 0.858123 37.1179 1.59186 37.9607C4.27065 41.2088 13.0496 49.0376 24.5086 49.0376C35.9756 49.0376 42.7974 42.7807 43.6507 41.6892C44.4983 40.607 43.8996 40.01 43.043 40.3675H43.0432ZM48.7275 37.2283C48.184 36.5205 45.4225 36.3886 43.6846 36.6021C41.944 36.8094 39.3314 37.8732 39.5585 38.5119C39.6751 38.7512 39.913 38.6438 41.1087 38.5363C42.3077 38.4167 45.6665 37.9928 46.3664 38.9077C47.0696 39.829 45.2951 44.2176 44.9711 44.9254C44.658 45.6331 45.0907 45.8157 45.6788 45.3443C46.2589 44.8731 47.309 43.6527 48.0137 41.9258C48.7136 40.1894 49.1404 37.7672 48.7273 37.2283H48.7275Z" fill="#FF9900"/>
<path fill-rule="evenodd" clip-rule="evenodd" d="M29.4361 20.7125C29.4361 23.2399 29.4999 25.3476 28.2224 27.5921C27.1914 29.4172 25.5581 30.5394 23.7333 30.5394C21.2422 30.5394 19.7914 28.6415 19.7914 25.8404C19.7914 20.3109 24.7459 19.3073 29.4361 19.3073V20.7125ZM35.9782 36.5251C35.5493 36.9082 34.9288 36.9357 34.4453 36.6801C32.292 34.8919 31.9087 34.0616 30.7226 32.3552C27.164 35.9868 24.6457 37.0725 20.0288 37.0725C14.5724 37.0725 10.3203 33.7056 10.3203 26.9626C10.3203 21.698 13.1764 18.112 17.2365 16.3602C20.7587 14.8089 25.6768 14.5352 29.4361 14.1065V13.267C29.4361 11.7249 29.5545 9.90003 28.6513 8.56794C27.8574 7.37261 26.3428 6.87986 25.0105 6.87986C22.5379 6.87986 20.3298 8.14809 19.7914 10.7759C19.6818 11.36 19.2531 11.9349 18.6692 11.9622L12.3732 11.2871C11.8441 11.1683 11.2602 10.7396 11.4062 9.92734C12.857 2.29951 19.7457 0 25.9137 0C29.0708 0 33.195 0.839523 35.686 3.23019C38.8431 6.17728 38.5419 10.1099 38.5419 14.3892V24.4991C38.5419 27.5375 39.8011 28.8696 40.9872 30.5121C41.4069 31.096 41.4983 31.7988 40.969 32.2365C39.6459 33.3405 37.2918 35.3936 35.9963 36.5434L35.978 36.5251" fill="black"/>
</g>
<defs>
<clipPath id="clip0_1_3573">
<rect width="50" height="50" fill="white"/>
</clipPath>
</defs>
</svg>

<svg xmlns="http://www.w3.org/2000/svg" width="64" height="64" fill="none" viewBox="0 0 50 50"><g clip-path="url(#a)"><path fill="#F90" d="M43.043 40.367c-20.24 9.633-32.8 1.574-40.842-3.321-.497-.309-1.343.072-.61.915 2.68 3.248 11.459 11.077 22.918 11.077 11.467 0 18.288-6.257 19.142-7.349.847-1.082.249-1.679-.608-1.322Zm5.684-3.139c-.543-.708-3.304-.84-5.042-.626-1.741.207-4.354 1.271-4.127 1.91.117.24.355.132 1.55.024 1.2-.12 4.559-.543 5.258.372.704.921-1.07 5.31-1.395 6.017-.313.708.12.89.708.42.58-.472 1.63-1.692 2.335-3.42.7-1.736 1.126-4.158.713-4.697Z"/><path fill="#000" fill-rule="evenodd" d="M29.436 20.712c0 2.528.064 4.636-1.214 6.88-1.03 1.825-2.664 2.947-4.489 2.947-2.49 0-3.942-1.898-3.942-4.699 0-5.53 4.955-6.533 9.645-6.533v1.405Zm6.542 15.813c-.429.383-1.05.41-1.533.155-2.153-1.788-2.536-2.618-3.722-4.325-3.559 3.632-6.077 4.718-10.694 4.718-5.457 0-9.709-3.367-9.709-10.11 0-5.265 2.856-8.851 6.916-10.603 3.523-1.551 8.44-1.825 12.2-2.253v-.84c0-1.542.119-3.367-.785-4.7-.794-1.194-2.308-1.687-3.64-1.687-2.473 0-4.681 1.268-5.22 3.896-.11.584-.538 1.159-1.122 1.186l-6.296-.675c-.529-.119-1.113-.547-.967-1.36C12.857 2.3 19.746 0 25.914 0c3.157 0 7.281.84 9.772 3.23 3.157 2.947 2.856 6.88 2.856 11.16V24.5c0 3.038 1.26 4.37 2.445 6.012.42.584.511 1.287-.018 1.724a273.797 273.797 0 0 0-4.973 4.307l-.018-.018" clip-rule="evenodd"/><path fill="#F90" d="M43.043 40.367c-20.24 9.633-32.8 1.574-40.842-3.321-.497-.309-1.343.072-.61.915 2.68 3.248 11.459 11.077 22.918 11.077 11.467 0 18.288-6.257 19.142-7.349.847-1.082.249-1.679-.608-1.322Zm5.684-3.139c-.543-.708-3.304-.84-5.042-.626-1.741.207-4.354 1.271-4.127 1.91.117.24.355.132 1.55.024 1.2-.12 4.559-.543 5.258.372.704.921-1.07 5.31-1.395 6.017-.313.708.12.89.708.42.58-.472 1.63-1.692 2.335-3.42.7-1.736 1.126-4.158.713-4.697Z"/><path fill="#000" fill-rule="evenodd" d="M29.436 20.712c0 2.528.064 4.636-1.214 6.88-1.03 1.825-2.664 2.947-4.489 2.947-2.49 0-3.942-1.898-3.942-4.699 0-5.53 4.955-6.533 9.645-6.533v1.405Zm6.542 15.813c-.429.383-1.05.41-1.533.155-2.153-1.788-2.536-2.618-3.722-4.325-3.559 3.632-6.077 4.718-10.694 4.718-5.457 0-9.709-3.367-9.709-10.11 0-5.265 2.856-8.851 6.916-10.603 3.523-1.551 8.44-1.825 12.2-2.253v-.84c0-1.542.119-3.367-.785-4.7-.794-1.194-2.308-1.687-3.64-1.687-2.473 0-4.681 1.268-5.22 3.896-.11.584-.538 1.159-1.122 1.186l-6.296-.675c-.529-.119-1.113-.547-.967-1.36C12.857 2.3 19.746 0 25.914 0c3.157 0 7.281.84 9.772 3.23 3.157 2.947 2.856 6.88 2.856 11.16V24.5c0 3.038 1.26 4.37 2.445 6.012.42.584.511 1.287-.018 1.724a273.797 273.797 0 0 0-4.973 4.307l-.018-.018" clip-rule="evenodd"/></g><defs><clipPath id="a"><path fill="#fff" d="M0 0h50v50H0z"/></clipPath></defs></svg>
